src/icons/service-datadog.svg

<svg enable-background="new 0 0 14 14" viewBox="0 0 14 14" xmlns="http://www.w3.org/2000/svg"><g><path d="m2.2 12.5.9-.2c.4.5.3.7.7 1 .6.5 1.4.3 1.7-.1.3-.5.3-.9.2-1.3l1-.2.1 1.1 5.9-1.1-.4-4.3h-.2l-.6-6.9-10.6 1.2z" fill="#fff"/><path d="m11.3 9.9-1.1-.8-.9 1.6-1.1-.3-1 1.5v.5l5.3-1-.3-3.3zm-4.9-1.4.8-.1c.1.1.2.1.4.1.3.1.6.1 1-.1.1-.1.3-.3.4-.4l3.5-.6.4 4.3-5.9 1.1zm6.4-1.6-.3.1-.7-6.8-11.2 1.3 1.4 11.2 1.3-.2c-.1-.1-.3-.3-.5-.6-.4-.3-.2-.9 0-1.2.3-.6 1.9-1.3 1.8-2.3 0-.3-.1-.8-.4-1.1v.2s-.2 0-.3-.3c0 0-.1-.1-.1-.2v.3s-.2-.2-.2-.5c-.1.1-.1.3-.1.3s-.1-.4-.1-.6-.2-.5-.2-1.4c.3.2 1.1.2 1.4-.3.1-.1.2-.5 0-1.3-.2-.4-.5-1.2-.6-1.4 0 .2.1.7.2.9.2.7.2.9.1 1.3 0 .2-.2.4-.6.6s-.9-.3-1-.3c-.4-.3-.7-.8-.7-1.1s.2-.4.3-.7c-.2.1-.3.2-.3.2s.2-.2.4-.4l.2-.2c-.1 0-.3 0-.3 0s.2-.1.5-.2c-.2 0-.4 0-.4 0s.6-.2 1-.4c.3-.1.6-.1.8.1.2.3.4.5.9.6.3-.1.4-.2.7-.3.3-.3.6-.4.6-.4s-.2.1-.2.3c.2-.1.4-.2.4-.2s-.1 0-.2.2c.3-.1.5-.2.5-.2s-.1.1-.1.2h.6c.7 0 .9-.8 1.2-.9s.4-.2 1 .4c.5.5.9 1.4.7 1.6s-.5-.1-.9-.5c-.1-.2-.3-.5-.3-.9-.1-.3-.3-.5-.3-.5s.1.3.1.5c0 .1 0 .7.2 1 0 0 0 .2-.1.2-.2-.2-.7-.4-.8-.5.3.3 1 .8 1.3 1.4.3.5.1 1 .2 1.1 0 0 .6.7.7 1 .2.6 0 1.2-.2 1.5l-.7.2c-.1 0-.2 0-.2-.1s.1-.3.1-.3v-.1c-.2.3-.5.5-.8.7-.4.2-.8.2-1.1.1-.7-.3-1.5-.8-1.6-.9v.1c.2.2.6.6 1.1.9l-.9.1.4 3.4c-.2 0-.2 0-.4.1-.2-.7-.5-1.1-.9-1.3-.3-.2-.8-.3-1.3-.2.3 0 .7 0 1.1.3.4.2.7.8.8 1.2.1.5.2 1-.1 1.5-.3.4-1.1.6-1.7.1.2.3.4.5.7.5.5.1.9 0 1.2-.3s.4-.8.4-1.4l.2-.1.1 1 6.7-.8zm-4.1-2.8v.2c.1.2.2.3.3.4h.1.3v-.1c0-.2 0-.6-.4-.7-.2-.1-.4 0-.4 0 .2.1.2.1.1.2zm1.2 1.9c-.1 0-.3 0-.5 0-.3 0-.7.2-.8.2-.1.1-.1.3 0 .4.4.2.6.4.9.3.2 0 .3-.3.4-.5s.1-.3 0-.4zm-2.9-1.7c.1-.1-.5-.2-.9.1-.3.2-.3.7 0 .9 0 0 .1 0 .1.1.1 0 .2-.1.3-.1.2-.1.4-.1.5-.1 0-.1.1-.2.1-.5-.1-.3-.3-.2-.1-.4z" fill="#7749a3"/></g></svg>

<?xml version="1.0" encoding="utf-8"?>
<!-- Generator: Adobe Illustrator 20.1.0, SVG Export Plug-In . SVG Version: 6.00 Build 0)  -->
<svg version="1.1" id="Layer_1" xmlns="http://www.w3.org/2000/svg" xmlns:xlink="http://www.w3.org/1999/xlink" x="0px" y="0px"
	 viewBox="0 0 14 14" style="enable-background:new 0 0 14 14;" xml:space="preserve">
<style type="text/css">
	.st0{fill:#FFFFFF;}
	.st1{fill:#7749A3;}
</style>
<title>HDL/Icon/Standard/Service/datadog</title>
<desc>Created with Sketch.</desc>
<g id="Colors">
	<g id="Service-icons" transform="translate(-121.000000, -641.000000)">
		<g id="Datadog_1_" transform="translate(100.000000, 623.000000)">
			<g id="HDL_x2F_Icon_x2F_Standard_x2F_Service_x2F_datadog" transform="translate(21.000000, 18.000000)">
				<g id="Datadog">
					<path id="Path" class="st0" d="M2.2,12.5l0.9-0.2c0.4,0.5,0.3,0.7,0.7,1c0.6,0.5,1.4,0.3,1.7-0.1c0.3-0.5,0.3-0.9,0.2-1.3
						l1-0.2l0.1,1.1l5.9-1.1l-0.4-4.3h-0.2l-0.6-6.9L0.9,1.7L2.2,12.5z"/>
					<path id="Shape" class="st1" d="M11.3,9.9l-1.1-0.8l-0.9,1.6l-1.1-0.3l-1,1.5v0.5l5.3-1l-0.3-3.3L11.3,9.9z M6.4,8.5l0.8-0.1
						c0.1,0.1,0.2,0.1,0.4,0.1c0.3,0.1,0.6,0.1,1-0.1C8.7,8.3,8.9,8.1,9,8l3.5-0.6l0.4,4.3L7,12.8L6.4,8.5z M12.8,6.9L12.5,7
						l-0.7-6.8L0.6,1.5L2,12.7l1.3-0.2c-0.1-0.1-0.3-0.3-0.5-0.6c-0.4-0.3-0.2-0.9,0-1.2c0.3-0.6,1.9-1.3,1.8-2.3
						c0-0.3-0.1-0.8-0.4-1.1v0.2c0,0-0.2,0-0.3-0.3c0,0-0.1-0.1-0.1-0.2v0.3c0,0-0.2-0.2-0.2-0.5C3.5,6.9,3.5,7.1,3.5,7.1
						S3.4,6.7,3.4,6.5S3.2,6,3.2,5.1c0.3,0.2,1.1,0.2,1.4-0.3c0.1-0.1,0.2-0.5,0-1.3C4.4,3.1,4.1,2.3,4,2.1C4,2.3,4.1,2.8,4.2,3
						c0.2,0.7,0.2,0.9,0.1,1.3c0,0.2-0.2,0.4-0.6,0.6c-0.4,0.2-0.9-0.3-1-0.3C2.3,4.3,2,3.8,2,3.5s0.2-0.4,0.3-0.7C2.1,2.9,2,3,2,3
						s0.2-0.2,0.4-0.4l0.2-0.2c-0.1,0-0.3,0-0.3,0s0.2-0.1,0.5-0.2c-0.2,0-0.4,0-0.4,0S3,2,3.4,1.8C3.7,1.7,4,1.7,4.2,1.9
						c0.2,0.3,0.4,0.5,0.9,0.6c0.3-0.1,0.4-0.2,0.7-0.3c0.3-0.3,0.6-0.4,0.6-0.4S6.2,1.9,6.2,2.1C6.4,2,6.6,1.9,6.6,1.9
						s-0.1,0-0.2,0.2C6.7,2,6.9,1.9,6.9,1.9S6.8,2,6.8,2.1h0.6c0.7,0,0.9-0.8,1.2-0.9C8.9,1.1,9,1,9.6,1.6c0.5,0.5,0.9,1.4,0.7,1.6
						S9.8,3.1,9.4,2.7C9.3,2.5,9.1,2.2,9.1,1.8C9,1.5,8.8,1.3,8.8,1.3s0.1,0.3,0.1,0.5c0,0.1,0,0.7,0.2,1c0,0,0,0.2-0.1,0.2
						C8.8,2.8,8.3,2.6,8.2,2.5c0.3,0.3,1,0.8,1.3,1.4c0.3,0.5,0.1,1,0.2,1.1c0,0,0.6,0.7,0.7,1c0.2,0.6,0,1.2-0.2,1.5L9.5,7.7
						c-0.1,0-0.2,0-0.2-0.1s0.1-0.3,0.1-0.3V7.2C9.2,7.5,8.9,7.7,8.6,7.9C8.2,8.1,7.8,8.1,7.5,8C6.8,7.7,6,7.2,5.9,7.1v0.1
						C6.1,7.4,6.5,7.8,7,8.1L6.1,8.2l0.4,3.4c-0.2,0-0.2,0-0.4,0.1c-0.2-0.7-0.5-1.1-0.9-1.3c-0.3-0.2-0.8-0.3-1.3-0.2
						c0.3,0,0.7,0,1.1,0.3c0.4,0.2,0.7,0.8,0.8,1.2c0.1,0.5,0.2,1-0.1,1.5c-0.3,0.4-1.1,0.6-1.7,0.1c0.2,0.3,0.4,0.5,0.7,0.5
						c0.5,0.1,0.9,0,1.2-0.3c0.3-0.3,0.4-0.8,0.4-1.4L6.5,12l0.1,1l6.7-0.8L12.8,6.9z M8.7,4.1v0.2C8.8,4.5,8.9,4.6,9,4.7h0.1h0.3
						V4.6c0-0.2,0-0.6-0.4-0.7c-0.2-0.1-0.4,0-0.4,0C8.8,4,8.8,4,8.7,4.1L8.7,4.1z M9.9,6C9.8,6,9.6,6,9.4,6C9.1,6,8.7,6.2,8.6,6.2
						c-0.1,0.1-0.1,0.3,0,0.4C9,6.8,9.2,7,9.5,6.9c0.2,0,0.3-0.3,0.4-0.5C10,6.2,10,6.1,9.9,6L9.9,6z M7,4.3
						c0.1-0.1-0.5-0.2-0.9,0.1c-0.3,0.2-0.3,0.7,0,0.9c0,0,0.1,0,0.1,0.1c0.1,0,0.2-0.1,0.3-0.1C6.7,5.2,6.9,5.2,7,5.2
						C7,5.1,7.1,5,7.1,4.7C7,4.4,6.8,4.5,7,4.3L7,4.3z"/>
				</g>
			</g>
		</g>
	</g>
</g>
</svg>
